X: 1
T: Laihian polkka
C: trad.
R: polka
Z: 2016 John Chambers <jc:trillian.mit.edu>
S: http://www.student.oulu.fi/~hpitkala/nuotteja/laihian-polkka-basso.pdf
M: 2/4
L: 1/16
K: Em
|:::\
"Em"E2GB EEGB | "Am"BBce BBce |\
"B7"B2BA GFGA | "Em"G2GF E2GB y:::|\
|:\
"C"e2ed c2Bc | "D7"d2D2F2A2 |
d2dc B2A2 | "G"[d2G2]G2B2d2 |\
"C"e2ed c2Bc | "D7"d2D2F2A2 |\
d2dc B2A2 | "G"FAG2 [1 G2Bd :|2 HG3F |]
